images/ic_gallery.svg

<svg width="16" height="16" viewBox="0 0 16 16" fill="none" xmlns="http://www.w3.org/2000/svg">
<path d="M6.03051 6.61058C6.6376 6.61058 7.12975 6.11844 7.12975 5.51134C7.12975 4.90425 6.6376 4.41211 6.03051 4.41211C5.42342 4.41211 4.93127 4.90425 4.93127 5.51134C4.93127 6.11844 5.42342 6.61058 6.03051 6.61058Z" fill="#979797"/>
<path d="M15.0534 9.55724C14.5344 9.06869 13.8779 8.74808 13.1603 8.65647V3.06869C13.1603 2.47327 12.916 1.93892 12.5344 1.54197C12.1374 1.14502 11.6031 0.916016 11.0076 0.916016H2.15267C1.55725 0.916016 1.0229 1.16029 0.625954 1.54197C0.229008 1.93892 0 2.47327 0 3.06869V10.1069V10.7633V12.1832C0 12.7786 0.244275 13.313 0.625954 13.7099C1.0229 14.1069 1.55725 14.3359 2.15267 14.3359H10.7176C11.2824 14.7939 11.9847 15.084 12.7634 15.084C13.6641 15.084 14.4733 14.7175 15.0534 14.1374C15.6336 13.5572 16 12.7481 16 11.8473C16 10.9465 15.6336 10.1374 15.0534 9.55724ZM0.80916 3.06869C0.80916 2.70228 0.961832 2.3664 1.20611 2.13739C1.45038 1.89311 1.78626 1.74044 2.15267 1.74044H11.0076C11.374 1.74044 11.7099 1.89311 11.9542 2.13739C12.1985 2.38166 12.3511 2.71754 12.3511 3.08395V7.84731L10.0916 5.58777C9.93893 5.4351 9.67939 5.41983 9.51145 5.58777L6.10687 9.00762L3.80153 6.68701C3.64885 6.53434 3.38931 6.51907 3.22137 6.68701L0.80916 9.12976V3.06869ZM2.1374 13.5572V13.5267C1.77099 13.5267 1.43511 13.374 1.19084 13.1298C0.961832 12.8855 0.80916 12.5496 0.80916 12.1832V10.7633V10.2901L3.51145 7.5725L5.81679 9.87785C5.96947 10.0305 6.22901 10.0305 6.39695 9.87785L9.80153 6.458L12.0305 8.70227C11.9847 8.71754 11.9389 8.73281 11.8931 8.74808C11.8321 8.76334 11.771 8.77861 11.6947 8.80914C11.6336 8.82441 11.5725 8.85495 11.5115 8.87021C11.4656 8.88548 11.4351 8.90075 11.3893 8.93128C11.3282 8.96182 11.2824 8.97708 11.2366 9.00762C11.1603 9.05342 11.084 9.09922 11.0076 9.14502C10.9618 9.17556 10.9313 9.19082 10.8855 9.22136C10.855 9.23663 10.8397 9.25189 10.8092 9.26716C10.6718 9.35876 10.5496 9.46563 10.4427 9.58777C9.8626 10.1679 9.49618 10.9771 9.49618 11.8778C9.49618 12.1069 9.52672 12.3206 9.57252 12.5496C9.58779 12.6107 9.60305 12.6565 9.61832 12.7175C9.66412 12.8702 9.70992 13.0229 9.77099 13.1756V13.1908C9.83206 13.313 9.89313 13.4504 9.96947 13.5572H2.1374ZM14.458 13.5572C14.0153 14 13.4198 14.2595 12.7481 14.2595C12.1069 14.2595 11.5114 14 11.084 13.5878C11.0229 13.5267 10.9618 13.4504 10.9008 13.3893C10.855 13.3435 10.8092 13.2824 10.7634 13.2366C10.7023 13.1603 10.6565 13.0687 10.6107 12.9771C10.5802 12.916 10.5496 12.8702 10.5191 12.8091C10.4886 12.7328 10.458 12.6412 10.4427 12.5496C10.4275 12.4885 10.3969 12.4122 10.3817 12.3511C10.3511 12.1985 10.3359 12.0305 10.3359 11.8626C10.3359 11.1908 10.6107 10.5954 11.0382 10.1527C11.4656 9.70991 12.0763 9.45037 12.7481 9.45037C13.4198 9.45037 14.0153 9.72517 14.458 10.1527C14.9008 10.5954 15.1603 11.1908 15.1603 11.8626C15.1603 12.5191 14.8855 13.1145 14.458 13.5572Z" fill="#979797"/>
<path d="M13.0382 10.2139C13.0077 10.1834 12.9619 10.1529 12.9008 10.1223C12.855 10.1071 12.8092 10.0918 12.7634 10.0918C12.7481 10.0918 12.7481 10.0918 12.7481 10.0918C12.7329 10.0918 12.7329 10.0918 12.7329 10.0918C12.687 10.0918 12.6412 10.1071 12.5954 10.1223C12.5496 10.1376 12.5038 10.1681 12.458 10.2139L11.5115 11.1605C11.3588 11.3132 11.3588 11.5727 11.5115 11.7407C11.6641 11.8933 11.9237 11.8933 12.0916 11.7407L12.3359 11.4964V13.1758C12.3359 13.4048 12.5191 13.588 12.7481 13.588C12.9771 13.588 13.1603 13.4048 13.1603 13.1758V11.4964L13.4046 11.7407C13.5573 11.8933 13.8168 11.8933 13.9848 11.7407C14.1374 11.588 14.1374 11.3284 13.9848 11.1605L13.0382 10.2139Z" fill="#979797"/>
</svg>

<svg xmlns="http://www.w3.org/2000/svg" fill="#979797" viewBox="0 0 16 16"><path d="M6.03 6.6a1.1 1.1 0 0 0 1.1-1.099 1.1 1.1 0 0 0-1.099-1.099 1.1 1.1 0 0 0-1.099 1.099A1.1 1.1 0 0 0 6.031 6.61zm9.023 2.947c-.52-.5-1.175-.8-1.893-.9V3.07c0-.595-.244-1.13-.626-1.527a2.13 2.13 0 0 0-1.527-.626H2.153c-.595 0-1.13.244-1.527.626C.23 1.94 0 2.473 0 3.07v9.115c0 .595.244 1.13.626 1.527a2.13 2.13 0 0 0 1.527.626h8.565c.565.458 1.267.748 2.046.748A3.23 3.23 0 0 0 16 11.847a3.23 3.23 0 0 0-.947-2.29zM.8 3.07c0-.366.153-.702.397-.93a1.34 1.34 0 0 1 .947-.397H11a1.34 1.34 0 0 1 .947.397 1.34 1.34 0 0 1 .397.947V7.85l-2.26-2.26a.41.41 0 0 0-.58 0L6.108 9 3.803 6.7a.41.41 0 0 0-.58 0L.8 9.13V3.07zm1.328 10.5v-.03a1.34 1.34 0 0 1-.947-.397 1.39 1.39 0 0 1-.382-.947V10.3l2.7-2.727 2.305 2.305c.153.153.412.153.58 0L9.8 6.458l2.23 2.244-.137.046c-.06.015-.122.03-.198.06-.06.015-.122.046-.183.06a.46.46 0 0 0-.122.06c-.06.03-.107.046-.153.076l-.23.137-.122.076c-.03.015-.046.03-.076.046-.137.092-.26.198-.367.32a3.23 3.23 0 0 0-.947 2.29c0 .23.03.443.076.672l.046.168.153.458v.015c.06.122.122.26.198.366h-7.83zm12.32 0a2.38 2.38 0 0 1-1.7.702 2.41 2.41 0 0 1-1.664-.672l-.183-.198c-.046-.046-.092-.107-.137-.153-.06-.076-.107-.168-.153-.26l-.092-.168c-.03-.076-.06-.168-.076-.26l-.06-.198a2.52 2.52 0 0 1-.046-.489 2.45 2.45 0 0 1 .702-1.71 2.36 2.36 0 0 1 1.71-.702 2.45 2.45 0 0 1 1.71.702 2.38 2.38 0 0 1 .702 1.7c0 .656-.275 1.252-.702 1.695zm-1.4-3.356c-.03-.03-.076-.06-.137-.092-.046-.015-.092-.03-.137-.03h-.03c-.046 0-.092.015-.138.03a.36.36 0 0 0-.137.092l-.947.947c-.153.153-.153.412 0 .58.153.153.412.153.58 0l.244-.244v1.68a.41.41 0 1 0 .824 0v-1.68l.244.244c.153.153.412.153.58 0 .153-.153.153-.412 0-.58l-.947-.947z"/></svg>
